X:1
T:Title
%%score { ( 1 4 ) | ( 2 3 ) }
L:1/8
M:4/4
K:Bb
V:1 treble nm="Grand Piano"
V:4 treble 
V:2 bass 
V:3 bass 
V:1
 z4 z2[Q:1/4=108] [B,D][CE] | [DF]2 [_D=E]2 [=DF]2 [Fd][Fd] | [Gc]2 [GB]2 [EG]4 | %3
 [DF]2 [DB]2 [=EG]2 [Ec]2 | c6 D[CE] | [DF]2 [_D=E]2 [=DF]2 [Fd][Fd] | [Gc]2 [GB]2 G4 | F4 c2 c2 | %8
 [DB]6 z2 | [Fd]4 GA B2 | [DF]8 | c8 | d8 | [Fd]4 GA B2 |[M:3/4] [DF]6 |[M:1/4] [Fd]2 | %16
[M:4/4] [Fc]2 [CFA][DFB] [C=EA]2 [B,EG]2 | F6 F2 | A2 A2 A2 GA | [DB]2 [EB]2 [DB]2 [DF]2 | %20
 c2 c2 c2 Bc | d2 d2 d4 | [Fd]4 GA B2 | z2 B,B, z2 [Ge]2 | [Fd]4 [Fc]4 |[M:3/4] [DFB]6 |] %26
V:2
 z4 z2 [B,,F,][B,,F,] | [B,,B,]2 [B,,B,]2 [B,,B,]2 [B,,B,][B,,B,] | [E,B,]2 [E,E]2 [E,B,]4 | %3
 [B,,B,]2 [B,,B,]2 [C,B,]2 [C,B,]2 | [F,A,E]6 [B,,F,][B,,F,] | %5
 [B,,B,]2 [B,,B,]2 [B,,B,]2 [B,,B,][B,,B,] | [E,B,]2 [E,E]2 [E,B,E]4 | [F,B,D]4 [F,A,E]2 [F,A,E]2 | %8
 [B,,B,]6 z2 | z4 .B,2 z2 | [B,,B,]2 D,F, z4 | [F,A,F]2 [F,A,][F,A,] [F,A,]4 | %12
 [B,,B,]2 [D,B,][F,B,] B,4 | z4 .B,2 z2 |[M:3/4] [B,,B,]2 D,F, B,2 |[M:1/4] [B,,B,]2 | %16
[M:4/4] [C,A,]2 C,C, C,2 C,2 | [F,A,]6 [F,A,]2 | [F,CE]2 [F,CE]2 [F,CE]2 [F,B,E][F,CE] | %19
 [B,,B,]2 [B,,G,]2 [B,,F,]2 [B,,B,]2 | [F,A,F]2 [F,A,F]2 [F,A,F]2 [F,G,F][F,B,F] | %21
 [B,F]2 [B,F]2 [B,F]4 | z4 .B,2 z2 | [B,,B,]2 D,F, B,2 [E,B,]2 | [F,B,]4 [F,E]4 | %25
[M:3/4] [B,,B,]6 |] %26
V:3
 x8 | x8 | x8 | x8 | x8 | x8 | x8 | x8 | x8 | [B,,B,]4 [E,E]-[E,A,E] [E,G,E]2 | x8 | x8 | x8 | %13
 [B,,B,]4 [E,E]-[E,A,E] [E,G,E]2 |[M:3/4] x6 |[M:1/4] x2 |[M:4/4] x8 | x8 | x8 | x8 | x8 | x8 | %22
 [B,,B,]4 [E,E]-[E,A,E] [E,G,E]2 | x8 | x8 |[M:3/4] x6 |] %26
V:4
 x8 | x8 | x8 | x8 | x8 | x8 | x8 | x8 | x8 | x8 | z2 B,B, B,4 | z2 FF F4 | F2 FF F4 | x8 | %14
[M:3/4] z2 B,B, z2 |[M:1/4] x2 |[M:4/4] x8 | x8 | x8 | x8 | x8 | x8 | x8 | [DF]6 z2 | x8 | %25
[M:3/4] x6 |] %26

